X: 4
T:Girl That Wears Green (#114), The
M:6/8
L:1/8
S:Sergt. James O'Neill manuscripts
K:G
G|G>Bd e>dB|gBB dBG|A>Bd e>dB|BAA A2 D|
G>Bd e>dB|gBB dBG|A>Bd edB|AGG G2:|
|:g|geg aga|geg aga|gag/2f/2 gee|d>ef BAG|
GBd edB|gBB dBG|ABd edB|AGG G2:||

